src/assets/outline/ShopAdd.svg

<svg width="24" height="24" viewBox="0 0 24 24"  xmlns="http://www.w3.org/2000/svg">
<path d="M14.72 22.75H9.33007C8.69007 22.75 8.13005 22.71 7.62005 22.64C7.21005 22.58 6.92003 22.2 6.98003 21.79C7.04003 21.38 7.41007 21.08 7.83007 21.15C8.27007 21.21 8.76006 21.24 9.32006 21.24H14.7101C18.8001 21.24 20.2501 19.79 20.2501 15.7V11.21C20.2501 10.8 20.5901 10.46 21.0001 10.46C21.4101 10.46 21.7501 10.8 21.7501 11.21V15.7C21.7601 20.64 19.65 22.75 14.72 22.75Z" />
<path d="M3.04004 16.2698C2.63004 16.2698 2.29004 15.9298 2.29004 15.5198V11.2197C2.29004 10.8097 2.63004 10.4697 3.04004 10.4697C3.45004 10.4697 3.79004 10.8097 3.79004 11.2197V15.5198C3.79004 15.9298 3.45004 16.2698 3.04004 16.2698Z" />
<path d="M12.0298 12.75C10.9298 12.75 9.92978 12.32 9.21978 11.53C8.50978 10.74 8.17979 9.70999 8.28979 8.60999L8.95983 1.93005C8.99983 1.55005 9.31983 1.25 9.70983 1.25H14.3798C14.7698 1.25 15.0898 1.54005 15.1298 1.93005L15.7998 8.60999C15.9098 9.70999 15.5798 10.74 14.8698 11.53C14.1298 12.32 13.1298 12.75 12.0298 12.75ZM10.3698 2.75L9.76983 8.76001C9.69983 9.43001 9.89982 10.06 10.3198 10.52C11.1698 11.46 12.8698 11.46 13.7198 10.52C14.1398 10.05 14.3398 9.42001 14.2698 8.76001L13.6698 2.75H10.3698Z" />
<path d="M18.33 12.75C16.3 12.75 14.49 11.11 14.28 9.08997L13.58 2.07996C13.56 1.86996 13.63 1.66 13.77 1.5C13.91 1.34 14.11 1.25 14.33 1.25H17.38C20.32 1.25 21.69 2.48 22.1 5.5L22.38 8.28003C22.5 9.46003 22.14 10.5801 21.37 11.4301C20.6 12.2801 19.52 12.75 18.33 12.75ZM15.16 2.75L15.78 8.93994C15.91 10.1899 17.08 11.25 18.33 11.25C19.09 11.25 19.77 10.9601 20.26 10.4301C20.74 9.90005 20.96 9.19005 20.89 8.43005L20.61 5.68005C20.3 3.42005 19.57 2.75 17.38 2.75H15.16Z" />
<path d="M5.66979 12.75C4.47979 12.75 3.39982 12.2801 2.62982 11.4301C1.85982 10.5801 1.49981 9.46003 1.61981 8.28003L1.89984 5.53003C2.31984 2.48003 3.68982 1.25 6.62982 1.25H9.6798C9.8898 1.25 10.0898 1.34 10.2398 1.5C10.3798 1.66 10.4498 1.86996 10.4298 2.07996L9.72979 9.08997C9.50979 11.11 7.68979 12.75 5.66979 12.75ZM6.61981 2.75C4.42981 2.75 3.69982 3.40995 3.37982 5.69995L3.1098 8.42004C3.0298 9.18004 3.2598 9.89004 3.7398 10.42C4.2198 10.95 4.90979 11.24 5.66979 11.24C6.92979 11.24 8.09978 10.1801 8.21978 8.93005L8.83984 2.73999H6.61981V2.75Z" />
<path d="M5 23.7505C3.6 23.7505 2.29001 23.1404 1.39001 22.0704C1.38001 22.0604 1.34 22.0205 1.31 21.9705C1.16 21.7905 1.02999 21.6105 0.929993 21.4205C0.489993 20.7105 0.25 19.8705 0.25 18.9905C0.25 17.5305 0.900029 16.1805 2.03003 15.2805C2.23003 15.1205 2.45 14.9705 2.69 14.8405C3.38 14.4505 4.19 14.2305 5 14.2305C6.16 14.2305 7.23003 14.6305 8.09003 15.3805C8.20003 15.4605 8.34998 15.6105 8.47998 15.7505C9.28998 16.6405 9.73999 17.7805 9.73999 18.9705C9.73999 19.8405 9.49999 20.6905 9.04999 21.4205C8.82999 21.8005 8.56001 22.1305 8.26001 22.3905C8.20001 22.4505 8.14001 22.5105 8.07001 22.5605C7.28001 23.3305 6.17 23.7505 5 23.7505ZM2.47998 21.0405C2.50998 21.0705 2.55998 21.1204 2.59998 21.1904C3.14998 21.8404 4.05 22.2605 5 22.2605C5.79 22.2605 6.55 21.9704 7.13 21.4504C7.16001 21.4104 7.2 21.3705 7.25 21.3405C7.45 21.1705 7.62003 20.9504 7.78003 20.6904C8.09003 20.1804 8.26001 19.6105 8.26001 19.0105C8.26001 18.2005 7.95001 17.4105 7.39001 16.8005C7.32001 16.7205 7.24997 16.6404 7.15997 16.5804C6.07997 15.6504 4.59998 15.5105 3.41998 16.1805C3.25998 16.2705 3.11999 16.3605 2.98999 16.4705C2.20999 17.0905 1.76001 18.0105 1.76001 19.0105C1.76001 19.6005 1.91998 20.1805 2.22998 20.6805C2.30998 20.8205 2.38998 20.9305 2.47998 21.0305C2.46998 21.0305 2.47998 21.0305 2.47998 21.0405Z" />
<path d="M6.49976 19.7305H3.50977C3.09977 19.7305 2.75977 19.3905 2.75977 18.9805C2.75977 18.5705 3.09977 18.2305 3.50977 18.2305H6.49976C6.90976 18.2305 7.24976 18.5705 7.24976 18.9805C7.24976 19.3905 6.90976 19.7305 6.49976 19.7305Z" />
<path d="M5 21.2595C4.59 21.2595 4.25 20.9195 4.25 20.5095V17.5195C4.25 17.1095 4.59 16.7695 5 16.7695C5.41 16.7695 5.75 17.1095 5.75 17.5195V20.5095C5.75 20.9295 5.41 21.2595 5 21.2595Z" />
</svg>

<?xml version="1.0" encoding="UTF-8"?>
<svg width="24" height="24" viewBox="0 0 24 24" xmlns="http://www.w3.org/2000/svg">
 <path d="m14.72 22.75h-5.3899c-0.64 0-1.2-0.04-1.71-0.11-0.41-0.06-0.70002-0.44-0.64002-0.85s0.43004-0.71 0.85004-0.64c0.44 0.06 0.92999 0.09 1.49 0.09h5.39c4.09 0 5.54-1.45 5.54-5.54v-4.49c0-0.41 0.34-0.75 0.75-0.75s0.75 0.34 0.75 0.75v4.49c0.01 4.94-2.1001 7.05-7.0301 7.05z"/>
 <path d="m3.04 16.27c-0.41 0-0.75-0.34-0.75-0.75v-4.3001c0-0.41 0.34-0.75 0.75-0.75s0.75 0.34 0.75 0.75v4.3001c0 0.41-0.34 0.75-0.75 0.75z"/>
 <path d="m12.03 12.75c-1.1 0-2.1-0.43-2.81-1.22s-1.04-1.82-0.92999-2.92l0.67004-6.6799c0.04-0.38 0.36-0.68005 0.75-0.68005h4.67c0.39 0 0.71 0.29005 0.75 0.68005l0.67 6.6799c0.11 1.1-0.22 2.13-0.93 2.92-0.74 0.79-1.74 1.22-2.84 1.22zm-1.66-10-0.59997 6.01c-0.07 0.67 0.12999 1.3 0.54997 1.76 0.85 0.94 2.55 0.94 3.4 0 0.42-0.47 0.62-1.1 0.55-1.76l-0.6-6.01h-3.3z"/>
 <path d="m18.33 12.75c-2.03 0-3.84-1.64-4.05-3.66l-0.7-7.01c-0.02-0.21 0.05-0.41996 0.19-0.57996s0.34-0.25 0.56-0.25h3.05c2.94 0 4.31 1.23 4.72 4.25l0.28 2.78c0.12 1.18-0.24 2.3001-1.01 3.1501s-1.85 1.3199-3.04 1.3199zm-3.17-10 0.62 6.1899c0.13 1.25 1.3 2.3101 2.55 2.3101 0.76 0 1.44-0.2899 1.93-0.8199 0.48-0.53005 0.7-1.24 0.63-2l-0.28-2.75c-0.31-2.26-1.04-2.93-3.23-2.93h-2.22z"/>
 <path d="m5.6698 12.75c-1.19 0-2.27-0.4699-3.04-1.3199s-1.13-1.9701-1.01-3.1501l0.28003-2.75c0.42-3.05 1.79-4.28 4.73-4.28h3.05c0.21 0 0.41 0.09 0.56 0.25 0.14 0.16 0.21 0.36996 0.19 0.57996l-0.70001 7.01c-0.22 2.02-2.04 3.66-4.06 3.66zm0.95002-10c-2.19 0-2.92 0.65995-3.24 2.95l-0.27002 2.7201c-0.08 0.76 0.15 1.47 0.63 2 0.48 0.53 1.17 0.82 1.93 0.82 1.26 0 2.43-1.0599 2.55-2.31l0.62006-6.1901h-2.22v0.01001z"/>
 <path d="m5 23.75c-1.4 0-2.71-0.6101-3.61-1.6801-0.01-0.01-0.05001-0.0499-0.08001-0.0999-0.15-0.18-0.28001-0.36-0.38001-0.55-0.44-0.71-0.67999-1.55-0.67999-2.43 0-1.46 0.65003-2.81 1.78-3.71 0.2-0.16 0.41997-0.31 0.65997-0.44 0.69-0.39 1.5-0.61 2.31-0.61 1.16 0 2.23 0.4 3.09 1.15 0.11 0.08 0.25995 0.23 0.38995 0.37 0.81 0.89 1.26 2.03 1.26 3.22 0 0.87-0.24 1.72-0.69 2.45-0.22 0.38-0.48998 0.71-0.78998 0.97-0.06 0.06-0.12 0.12-0.19 0.17-0.79 0.77-1.9 1.19-3.07 1.19zm-2.52-2.71c0.03 0.03 0.08 0.0799 0.12 0.1499 0.55 0.65 1.45 1.0701 2.4 1.0701 0.79 0 1.55-0.2901 2.13-0.8101 0.03001-0.04 0.07-0.0799 0.12-0.1099 0.2-0.17 0.37003-0.3901 0.53003-0.6501 0.31-0.51 0.47998-1.0799 0.47998-1.6799 0-0.81-0.31-1.6-0.87-2.21-0.07-0.08-0.14004-0.1601-0.23004-0.2201-1.08-0.93-2.56-1.0699-3.74-0.3999-0.16 0.09-0.29999 0.18-0.42999 0.29-0.78 0.62-1.23 1.54-1.23 2.54 0 0.59 0.15997 1.17 0.46997 1.67 0.08 0.14 0.16 0.25 0.25 0.35-0.01 0 0 0 0 0.01z"/>
 <path d="m6.4998 19.73h-2.99c-0.41 0-0.75-0.34-0.75-0.75s0.34-0.75 0.75-0.75h2.99c0.41 0 0.75 0.34 0.75 0.75s-0.34 0.75-0.75 0.75z"/>
 <path d="m5 21.26c-0.41 0-0.75-0.34-0.75-0.75v-2.99c0-0.41 0.34-0.75 0.75-0.75s0.75 0.34 0.75 0.75v2.99c0 0.42-0.34 0.75-0.75 0.75z"/>
</svg>
